images/icons/mailchimp.svg

<svg fill="none" height="24" viewBox="0 0 24 24" width="24" xmlns="http://www.w3.org/2000/svg"><g fill="#000"><path d="m18.0003 11.3137h.4901c.104-.2228.104-.5495 0-.9207-.1039-.54949-.2673-.92075-.594-.8762-.3267.0594-.3267.4901-.2228 1.0395.0446.3267.1634.594.3267.7574z"/><path d="m15.1193 11.8038c.2228.104.3862.1634.4307.104.0594-.0594 0-.104-.0594-.2228-.1039-.2227-.3861-.3861-.594-.4901-.5495-.2227-1.1435-.1633-1.6335.2228-.1634.104-.3268.2673-.2674.3861 0 .0594.0594.0594.104.0594.104 0 .594-.2227 1.1435-.2673.3267-.0148.6534.104.8761.2079z"/><path d="m14.6293 12.0712c-.3267.0594-.49.1633-.594.2673-.1039.1039-.1634.1633-.1634.2227v.0594h.0594c.0595 0 .2228-.0594.2228-.0594.4307-.1633.7128-.1633.9801-.1039.1634 0 .2228.0594.2673 0 0 0 0-.0594 0-.104-.0148-.1633-.3415-.3267-.7722-.2821z"/><path d="m14.7926 12.4572c.104-.2228.104-.7128 0-1.0841-.1039-.5494-.2673-.8762-.6534-.8762-.3267.0594-.3267.4901-.2228 1.0841.0594.3861.2228.594.2673.7574.2822.4455.4456.3267.6089.1188z"/><path d="m17.0202 13.0512c.2228.1039.4307.0594.5495-.104.0594-.1633-.0594-.3861-.2673-.49-.2228-.104-.4307-.0594-.5495.1039-.1188.1634.0446.3861.2673.4901z"/><path d="m18.3716 11.8632c-.1633 0-.3267.1633-.3267.4306 0 .2228.104.4307.3267.4307.1634 0 .3267-.1634.3267-.4307-.0445-.2227-.1633-.4306-.3267-.4306z"/><path d="m6.86251 16.0956c-.0594-.0594-.10395-.0594-.16336 0-.0594 0-.10395 0-.16335 0-.10395 0-.22276-.0594-.26731-.1634-.04455-.1039-.0594-.2673 0-.49l.0594-.104c.16336-.3267.38611-.8167.10396-1.3068-.22276-.3861-.49006-.594-.87617-.6534s-.75737.1039-.98013.3861c-.38611.4307-.43066.9801-.38611 1.188 0 .0594.0594.104.10395.104.05941 0 .16336-.0594.22276-.2228v-.0594c0-.1039.0594-.2227.16335-.3861.10396-.1633.26731-.2673.43066-.2673.16336-.0594.38611 0 .54947.104.2673.1633.38611.49.2673.8167-.16335.1634-.22275.4307-.22275.7128.0594.4901.38611.7129.65342.7574.2673 0 .49006-.1633.49006-.2673.0594-.0891.01485-.0891.01485-.1485z"/><path d="m22.6633 15.1748c0-.0594-.0594-.2673-.1633-.594l-.2228-.49c.3861-.5495.3861-1.0841.3267-1.3514-.0594-.3267-.2227-.6534-.49-.9801-.2673-.3268-.9207-.6535-1.7375-.8762l-.4307-.104s0-1.0395-.0594-1.47016c0-.32671-.0594-.81677-.2227-1.30683-.1634-.65341-.4901-1.24743-.9208-1.63354 1.0841-1.14347 1.7969-2.45031 1.7969-3.53439 0-2.064195-2.5542-2.717611-5.7619-1.41078l-.6534.26731s-1.188-1.188031-1.2474-1.188031c-3.51959-3.148279-14.76132 9.400281-11.18238 12.444621l.75737.6534c-.22275.5495-.26731 1.1435-.22275 1.7969.10395.8168.54946 1.6335 1.18803 2.2869.65341.5941 1.51473.9802 2.39091.9802 1.41078 3.267 4.61842 5.2124 8.36072 5.3312 4.0245.104 7.4401-1.7968 8.8509-5.1679.1039-.2227.49-1.3068.49-2.2869.0891-.995-.4603-1.3663-.8465-1.3663zm-16.51357 2.5543c-.10395 0-.2673.0594-.38611 0-1.18803-.0594-2.55426-1.1435-2.65821-2.4503-.10395-1.4108.59401-2.4949 1.90085-2.777.16335-.0594.3267-.0594.54946-.0594.71282.0594 1.79689.594 2.0642 2.1681.2079 1.4851-.10395 2.8958-1.47019 3.1186zm-1.35138-6.0886c-.81677.1633-1.51474.594-1.96025 1.2474-.26731-.2228-.75737-.6534-.81677-.8168-.71282-1.3068.75737-3.90563 1.7969-5.33127 2.49486-3.57893 6.45987-6.296552 8.25677-5.821341.3267.103951 1.3069 1.247431 1.3069 1.247431s-1.8415 1.03952-3.53442 2.45031c-2.28696 1.69294-4.02445 4.2472-5.04913 7.02427zm12.81585 5.5391.0594-.0594c0-.0594-.0594-.0594-.0594-.0594s-1.9008.2673-3.6977-.3861c.2227-.6534.7128-.4306 1.5147-.3267 1.4108.104 2.7176-.1039 3.6384-.3861.8167-.2228 1.9008-.7128 2.7176-1.3514.2673.594.3861 1.3069.3861 1.3069s.2227-.0594.3861.0594c.1633.1039.2673.3267.2227.8761-.1633 1.0841-.6534 1.9009-1.3513 2.7176-.4307.4901-1.0396.9208-1.6781 1.2475-.3267.1633-.7128.3267-1.0841.4306-2.9404.9208-5.8659-.0594-6.7866-2.2869-.0594-.1634-.1634-.3267-.1634-.5495-.3861-1.4702-.0594-3.2077 1.0395-4.2917.0594-.0594.104-.1634.104-.2673 0-.104-.0594-.1634-.104-.2228-.3861-.5495-1.678-1.4702-1.4107-3.2671.1633-1.30681 1.3068-2.16814 2.3315-2.12358h.2673c.4306 0 .8761.10395 1.188.10395.594 0 1.188-.0594 1.8415-.59402.2227-.16335.3861-.3267.7128-.38611.0594 0 .1039-.0594.2673 0 .1633 0 .3267.05941.4306.16336.5495.38611.5941 1.18803.6535 1.84144 0 .38611.0594 1.24746.0594 1.47016.0594.5495.1633.6534.49.7574.1634.0594.3267.104.5495.1634.7128.2227 1.1435.3861 1.4108.6534.1633.1633.2227.3267.2673.49.1039.594-.4901 1.3514-1.9603 2.0642-1.6335.7574-3.5344.9208-4.8857.7574l-.4901-.0594c-1.0841-.1634-1.6781 1.2474-1.0395 2.1681.4306.5941 1.5741 1.0396 2.6582 1.0396 2.6136 0 4.6184-1.0841 5.3313-2.0642l.0594-.104c.0594-.0594 0-.1039-.0594-.0594-.5941.4307-3.3117 2.0642-6.1926 1.5742 0 0-.3267-.0594-.6535-.1634-.2673-.1039-.7573-.3267-.8761-.8762 2.4354.7129 3.9056 0 3.9056 0zm-8.15283-10.42492c.87613-1.03953 2.00483-1.96025 2.98493-2.45031.0594 0 .0594 0 .0594.0594-.0594.16336-.2228.43066-.2673.65342 0 .0594.0594.0594.0594.0594.594-.43066 1.6781-.87617 2.6137-.92072.0594 0 .0594.0594.0594.0594-.1634.10395-.2674.26731-.4307.43066 0 0 0 .0594.0594.0594.6534 0 1.5741.22276 2.1681.59402.0594 0 0 .10395-.0594.10395-.9207-.22276-2.3909-.38611-3.965 0-1.4108.32671-2.4503.87617-3.20768 1.41078-.07425-.01485-.11881-.01485-.07425-.0594z"/></g></svg>

<svg width="24" height="24" viewBox="0 0 24 24" fill="none" xmlns="http://www.w3.org/2000/svg">
<path d="M18.0003 11.3137C18.1637 11.3137 18.3271 11.3137 18.4904 11.3137C18.5944 11.0909 18.5944 10.7642 18.4904 10.393C18.3865 9.84351 18.2231 9.47225 17.8964 9.5168C17.5697 9.5762 17.5697 10.0069 17.6736 10.5563C17.7182 10.883 17.837 11.1503 18.0003 11.3137Z" fill="black"/>
<path d="M15.1193 11.8038C15.3421 11.9078 15.5055 11.9672 15.55 11.9078C15.6094 11.8484 15.55 11.8038 15.4906 11.685C15.3867 11.4623 15.1045 11.2989 14.8966 11.1949C14.3471 10.9722 13.7531 11.0316 13.2631 11.4177C13.0997 11.5217 12.9363 11.685 12.9957 11.8038C12.9957 11.8632 13.0551 11.8632 13.0997 11.8632C13.2037 11.8632 13.6937 11.6405 14.2432 11.5959C14.5699 11.5811 14.8966 11.6999 15.1193 11.8038Z" fill="black"/>
<path d="M14.6293 12.0712C14.3026 12.1306 14.1393 12.2345 14.0353 12.3385C13.9314 12.4424 13.8719 12.5018 13.8719 12.5612V12.6206H13.9313C13.9908 12.6206 14.1541 12.5612 14.1541 12.5612C14.5848 12.3979 14.8669 12.3979 15.1342 12.4573C15.2976 12.4573 15.357 12.5167 15.4015 12.4573C15.4015 12.4573 15.4015 12.3979 15.4015 12.3533C15.3867 12.19 15.06 12.0266 14.6293 12.0712Z" fill="black"/>
<path d="M14.7926 12.4572C14.8966 12.2344 14.8966 11.7444 14.7926 11.3731C14.6887 10.8237 14.5253 10.4969 14.1392 10.4969C13.8125 10.5563 13.8125 10.987 13.9164 11.581C13.9758 11.9671 14.1392 12.175 14.1837 12.3384C14.4659 12.7839 14.6293 12.6651 14.7926 12.4572Z" fill="black"/>
<path d="M17.0202 13.0512C17.243 13.1551 17.4509 13.1106 17.5697 12.9472C17.6291 12.7839 17.5103 12.5611 17.3024 12.4572C17.0796 12.3532 16.8717 12.3978 16.7529 12.5611C16.6341 12.7245 16.7975 12.9472 17.0202 13.0512Z" fill="black"/>
<path d="M18.3716 11.8632C18.2083 11.8632 18.0449 12.0265 18.0449 12.2938C18.0449 12.5166 18.1489 12.7245 18.3716 12.7245C18.535 12.7245 18.6983 12.5611 18.6983 12.2938C18.6538 12.0711 18.535 11.8632 18.3716 11.8632Z" fill="black"/>
<path d="M6.86251 16.0956C6.80311 16.0362 6.75856 16.0362 6.69915 16.0956C6.63975 16.0956 6.5952 16.0956 6.5358 16.0956C6.43185 16.0956 6.31304 16.0362 6.26849 15.9322C6.22394 15.8283 6.20909 15.6649 6.26849 15.4422L6.32789 15.3382C6.49125 15.0115 6.714 14.5215 6.43185 14.0314C6.20909 13.6453 5.94179 13.4374 5.55568 13.378C5.16957 13.3186 4.79831 13.4819 4.57555 13.7641C4.18944 14.1948 4.14489 14.7442 4.18944 14.9521C4.18944 15.0115 4.24884 15.0561 4.29339 15.0561C4.3528 15.0561 4.45675 14.9967 4.51615 14.8333V14.7739C4.51615 14.67 4.57555 14.5512 4.6795 14.3878C4.78346 14.2245 4.94681 14.1205 5.11016 14.1205C5.27352 14.0611 5.49627 14.1205 5.65963 14.2245C5.92693 14.3878 6.04574 14.7145 5.92693 15.0412C5.76358 15.2046 5.70418 15.4719 5.70418 15.754C5.76358 16.2441 6.09029 16.4669 6.3576 16.5114C6.6249 16.5114 6.84766 16.3481 6.84766 16.2441C6.90706 16.155 6.86251 16.155 6.86251 16.0956Z" fill="black"/>
<path d="M22.6633 15.1748C22.6633 15.1154 22.6039 14.9075 22.5 14.5808L22.2772 14.0908C22.6633 13.5413 22.6633 13.0067 22.6039 12.7394C22.5445 12.4127 22.3812 12.086 22.1139 11.7593C21.8466 11.4325 21.1932 11.1058 20.3764 10.8831L19.9457 10.7791C19.9457 10.7791 19.9457 9.7396 19.8863 9.30894C19.8863 8.98223 19.8269 8.49217 19.6636 8.00211C19.5002 7.3487 19.1735 6.75468 18.7428 6.36857C19.8269 5.2251 20.5397 3.91826 20.5397 2.83418C20.5397 0.769985 17.9855 0.116569 14.7778 1.4234L14.1244 1.69071C14.1244 1.69071 12.9364 0.502679 12.877 0.502679C9.35741 -2.6456 -1.88432 9.90296 1.69462 12.9473L2.45199 13.6007C2.22924 14.1502 2.18468 14.7442 2.22924 15.3976C2.33319 16.2144 2.7787 17.0311 3.41727 17.6845C4.07068 18.2786 4.932 18.6647 5.80818 18.6647C7.21896 21.9317 10.4266 23.8771 14.1689 23.9959C18.1934 24.0999 21.609 22.1991 23.0198 18.828C23.1237 18.6053 23.5098 17.5212 23.5098 16.5411C23.5989 15.5461 23.0495 15.1748 22.6633 15.1748ZM6.14973 17.7291C6.04578 17.7291 5.88243 17.7885 5.76362 17.7291C4.57559 17.6697 3.20936 16.5856 3.10541 15.2788C3.00146 13.868 3.69942 12.7839 5.00626 12.5018C5.16961 12.4424 5.33296 12.4424 5.55572 12.4424C6.26854 12.5018 7.35261 13.0364 7.61992 14.6105C7.82782 16.0956 7.51597 17.5063 6.14973 17.7291ZM4.79835 11.6405C3.98158 11.8038 3.28361 12.2345 2.8381 12.8879C2.57079 12.6651 2.08073 12.2345 2.02133 12.0711C1.30851 10.7643 2.7787 8.16547 3.81823 6.73983C6.31309 3.1609 10.2781 0.443278 12.075 0.918489C12.4017 1.02244 13.3819 2.16592 13.3819 2.16592C13.3819 2.16592 11.5404 3.20544 9.84748 4.61623C7.56052 6.30917 5.82303 8.86343 4.79835 11.6405ZM17.6142 17.1796L17.6736 17.1202C17.6736 17.0608 17.6142 17.0608 17.6142 17.0608C17.6142 17.0608 15.7134 17.3281 13.9165 16.6747C14.1392 16.0213 14.6293 16.2441 15.4312 16.348C16.842 16.452 18.1488 16.2441 19.0696 15.9619C19.8863 15.7391 20.9704 15.2491 21.7872 14.6105C22.0545 15.2045 22.1733 15.9174 22.1733 15.9174C22.1733 15.9174 22.396 15.858 22.5594 15.9768C22.7227 16.0807 22.8267 16.3035 22.7821 16.8529C22.6188 17.937 22.1287 18.7538 21.4308 19.5705C21.0001 20.0606 20.3912 20.4913 19.7527 20.818C19.426 20.9813 19.0399 21.1447 18.6686 21.2486C15.7282 22.1694 12.8027 21.1892 11.882 18.9617C11.8226 18.7983 11.7186 18.635 11.7186 18.4122C11.3325 16.942 11.6592 15.2045 12.7581 14.1205C12.8175 14.0611 12.8621 13.9571 12.8621 13.8532C12.8621 13.7492 12.8027 13.6898 12.7581 13.6304C12.372 13.0809 11.0801 12.1602 11.3474 10.3633C11.5107 9.05649 12.6542 8.19516 13.6789 8.23972H13.9462C14.3768 8.23972 14.8223 8.34367 15.1342 8.34367C15.7282 8.34367 16.3222 8.28427 16.9757 7.74965C17.1984 7.5863 17.3618 7.42295 17.6885 7.36354C17.7479 7.36354 17.7924 7.30414 17.9558 7.36354C18.1191 7.36354 18.2825 7.42295 18.3864 7.5269C18.9359 7.91301 18.9805 8.71493 19.0399 9.36834C19.0399 9.75445 19.0993 10.6158 19.0993 10.8385C19.1587 11.388 19.2626 11.4919 19.5893 11.5959C19.7527 11.6553 19.916 11.6999 20.1388 11.7593C20.8516 11.982 21.2823 12.1454 21.5496 12.4127C21.7129 12.576 21.7723 12.7394 21.8169 12.9027C21.9208 13.4967 21.3268 14.2541 19.8566 14.9669C18.2231 15.7243 16.3222 15.8877 14.9709 15.7243L14.4808 15.6649C13.3967 15.5015 12.8027 16.9123 13.4413 17.833C13.8719 18.4271 15.0154 18.8726 16.0995 18.8726C18.7131 18.8726 20.7179 17.7885 21.4308 16.8084L21.4902 16.7044C21.5496 16.645 21.4902 16.6005 21.4308 16.645C20.8367 17.0757 18.1191 18.7092 15.2382 18.2192C15.2382 18.2192 14.9115 18.1598 14.5847 18.0558C14.3174 17.9519 13.8274 17.7291 13.7086 17.1796C16.144 17.8925 17.6142 17.1796 17.6142 17.1796ZM9.46137 6.75468C10.3375 5.71515 11.4662 4.79443 12.4463 4.30437C12.5057 4.30437 12.5057 4.30437 12.5057 4.36377C12.4463 4.52713 12.2829 4.79443 12.2384 5.01719C12.2384 5.07659 12.2978 5.07659 12.2978 5.07659C12.8918 4.64593 13.9759 4.20042 14.9115 4.15587C14.9709 4.15587 14.9709 4.21527 14.9709 4.21527C14.8075 4.31922 14.7035 4.48258 14.5402 4.64593C14.5402 4.64593 14.5402 4.70533 14.5996 4.70533C15.253 4.70533 16.1737 4.92809 16.7677 5.29935C16.8271 5.29935 16.7677 5.4033 16.7083 5.4033C15.7876 5.18054 14.3174 5.01719 12.7433 5.4033C11.3325 5.73001 10.293 6.27947 9.53562 6.81408C9.46137 6.79923 9.41681 6.79923 9.46137 6.75468Z" fill="black"/>
</svg>
